img/github.svg

<svg height="512pt" viewBox="0 0 512 512" width="512pt" xmlns="http://www.w3.org/2000/svg"><path d="m386 53c0 5.523438-4.476562 10-10 10s-10-4.476562-10-10 4.476562-10 10-10 10 4.476562 10 10zm0 0"/><path d="m256 106c-93.738281 0-170 76.261719-170 170 0 94.644531 76.878906 170 170 170 93.324219 0 170-75.488281 170-170 0-93.738281-76.261719-170-170-170zm-30.792969 316.820312c.507813-2.207031.78125-4.492187.792969-6.820312v-39.835938c-.023438-14.582031 5.058594-16.84375 10.875-25.726562 1.867188-2.851562 2.152344-6.457031.761719-9.570312-1.394531-3.109376-4.277344-5.296876-7.648438-5.796876-39.667969-5.921874-55.238281-26.371093-61.316406-42.480468-8.09375-21.460938-3.808594-48.222656 10.417969-65.09375 2.164062-2.542969 4.101562-7.113282 2.546875-11.6875-3.035157-9.167969-2.5625-23.8125-.671875-29.476563 8.617187 1.261719 16.667968 6.144531 25.839844 11.710938 5.308593 3.226562 9.082031 6.203125 15.503906 4.476562 11.222656-3.042969 22.558594-4.660156 33.691406-4.808593 11.136719.144531 22.472656 1.765624 33.710938 4.8125 6.382812 1.722656 10.28125-1.320313 15.484374-4.480469 9.175782-5.566407 17.226563-10.453125 25.84375-11.710938 1.890626 5.660157 2.363282 20.300781-.644531 29.394531-1.582031 4.652344.351563 9.226563 2.515625 11.769532 14.230469 16.867187 18.515625 43.632812 10.417969 65.09375-6.074219 16.109375-21.644531 36.558594-61.3125 42.476562-3.371094.503906-6.253906 2.691406-7.648437 5.800782-1.394532 3.113281-1.109376 6.71875.757812 9.570312 5.804688 8.863281 10.902344 11.125 10.878906 25.742188v39.875c.011719 2.304687.28125 4.574218.785156 6.765624-10.074218 2.101563-20.382812 3.179688-30.789062 3.179688s-20.71875-1.078125-30.792969-3.179688zm80.902344-5.402343c-.0625-.464844-.105469-.933594-.109375-1.417969v-39.804688c.019531-11.476562-2.503906-18.941406-5.628906-24.539062 30.347656-8.203125 51.976562-26.308594 61.667968-52.007812 10.238282-27.144532 5.59375-59.59375-11.449218-82.058594 3.105468-13.667969 3.015625-35.253906-4.425782-45.070313-3.328124-4.394531-7.976562-6.671875-13.117187-6.449219-15.636719.722657-27.6875 8.527344-40.8125 16.441407-12.011719-3.039063-24.144531-4.652344-36.113281-4.800781-.082032-.003907-.160156-.003907-.242188 0-11.972656.144531-24.113281 1.761718-36.113281 4.800781-13.023437-7.851563-25.109375-15.714844-40.816406-16.441407-5.117188-.234374-9.78125 2.054688-13.113281 6.449219-7.429688 9.800781-7.53125 31.335938-4.421876 45.0625-17.042968 22.464844-21.691406 54.921875-11.453124 82.066407 9.691406 25.699218 31.320312 43.804687 61.667968 52.003906-2.46875 4.421875-4.554687 10.015625-5.316406 17.816406-12.367188 4.324219-22.378906 1.472656-29.175781-9.980469-7.949219-13.371093-21.417969-24.15625-36.855469-22.824219-5.503906.476563-9.578125 5.324219-9.101562 10.824219.472656 5.503907 5.335937 9.585938 10.824218 9.105469 7.148438-.621094 14.199219 6.824219 17.9375 13.109375 10.6875 18.011719 28 24.441406 46.058594 20.578125v25.660156c-.003906.503906-.046875.992188-.113281 1.472656-59.199219-21.003906-99.886719-78.019531-99.886719-141.414062 0-82.710938 67.289062-150 150-150s150 67.289062 150 150c0 63.394531-40.6875 120.410156-99.890625 141.417969zm0 0"/><path d="m462 0h-412c-27.570312 0-50 22.429688-50 50v412c0 27.570312 22.429688 50 50 50h412c27.570312 0 50-22.429688 50-50v-412c0-27.570312-22.429688-50-50-50zm30 462c0 16.542969-13.457031 30-30 30h-412c-16.542969 0-30-13.457031-30-30v-412c0-16.542969 13.457031-30 30-30h412c16.542969 0 30 13.457031 30 30zm0 0"/><path d="m136 63h200c5.523438 0 10-4.476562 10-10s-4.476562-10-10-10h-200c-5.523438 0-10 4.476562-10 10s4.476562 10 10 10zm0 0"/></svg>

<svg id="Layer_1" data-name="Layer 1" xmlns="http://www.w3.org/2000/svg" viewBox="0 0 512 512"><defs><style>.cls-1{fill:#fff;}</style></defs><title>github</title><path class="cls-1" d="M386,53a10,10,0,1,1-10-10A10,10,0,0,1,386,53Z"/><path class="cls-1" d="M256,106c-93.74,0-170,76.26-170,170,0,94.64,76.88,170,170,170,93.32,0,170-75.49,170-170C426,182.26,349.74,106,256,106ZM225.21,422.82A31.48,31.48,0,0,0,226,416V376.16c0-14.58,5.06-16.84,10.88-25.72A10,10,0,0,0,230,335.07c-39.67-5.92-55.24-26.37-61.32-42.48-8.09-21.46-3.81-48.22,10.42-65.09,2.16-2.55,4.1-7.12,2.55-11.69-3-9.17-2.57-23.81-.68-29.48,8.62,1.26,16.67,6.15,25.84,11.71,5.31,3.23,9.09,6.21,15.51,4.48A136.06,136.06,0,0,1,256,197.71a136.28,136.28,0,0,1,33.71,4.81c6.38,1.73,10.28-1.32,15.49-4.48,9.17-5.56,17.22-10.45,25.84-11.71,1.89,5.66,2.36,20.3-.65,29.4-1.58,4.65.36,9.22,2.52,11.77,14.23,16.86,18.52,43.63,10.42,65.09-6.08,16.11-21.65,36.56-61.31,42.48a10,10,0,0,0-6.9,15.37c5.81,8.86,10.91,11.12,10.88,25.74v39.87a31.65,31.65,0,0,0,.79,6.77,150.65,150.65,0,0,1-61.58,0Zm80.9-5.4A11.17,11.17,0,0,1,306,416V376.2c0-11.48-2.5-18.95-5.63-24.54,30.35-8.21,52-26.31,61.67-52,10.24-27.15,5.59-59.6-11.45-82.06,3.11-13.67,3-35.25-4.43-45.07a15.3,15.3,0,0,0-13.11-6.45c-15.64.72-27.69,8.53-40.82,16.44a155.21,155.21,0,0,0-36.11-4.8h-.24a155.14,155.14,0,0,0-36.11,4.8c-13-7.85-25.11-15.71-40.82-16.44a15.31,15.31,0,0,0-13.11,6.45c-7.43,9.8-7.54,31.34-4.43,45.06-17,22.47-21.69,54.92-11.45,82.07,9.69,25.7,31.32,43.8,61.67,52a44.2,44.2,0,0,0-5.32,17.82c-12.36,4.32-22.38,1.47-29.17-10-7.95-13.37-21.42-24.16-36.86-22.83A10,10,0,0,0,142,356.59c7.15-.62,14.2,6.83,17.94,13.11,10.69,18,28,24.44,46.06,20.58v25.66a11.68,11.68,0,0,1-.11,1.47c-59.2-21-99.89-78-99.89-141.41,0-82.71,67.29-150,150-150s150,67.29,150,150C406,339.39,365.31,396.41,306.11,417.42Z"/><path class="cls-1" d="M462,0H50A50.06,50.06,0,0,0,0,50V462a50.06,50.06,0,0,0,50,50H462a50.06,50.06,0,0,0,50-50V50A50.06,50.06,0,0,0,462,0Zm30,462a30,30,0,0,1-30,30H50a30,30,0,0,1-30-30V50A30,30,0,0,1,50,20H462a30,30,0,0,1,30,30Z"/><path class="cls-1" d="M136,63H336a10,10,0,0,0,0-20H136a10,10,0,0,0,0,20Z"/></svg>
